neru-light-classic/22x22/panel/idle-good-signal-lock.svg

<svg xmlns="http://www.w3.org/2000/svg" width="22" height="22" version="1.1">
 <defs>
  <style id="current-color-scheme" type="text/css">
   .ColorScheme-Text { color:#1e333d; } .ColorScheme-Highlight { color:#3fb7ff; }
  </style>
 </defs>
 <path style="fill:currentColor" class="ColorScheme-Text" d="m 16,12.00005 c -1.108,0 -2,0.91085 -2,2.0312 L 14,15 l -1,0 0,4 6,0 0,-4 -1,0 0,-0.96875 c 0,-1.1199 -0.892,-2.0312 -2,-2.0312 z m 0,1 c 0.554,0 1,0.4424 1,1 l 0,1 -2,0 0,-1 c 0,-0.5576 0.446,-1 1,-1 z"/>
 <path style="opacity:0.3;fill:currentColor" class="ColorScheme-Text" d="M 11.029297 5 L 11.03125 5.0019531 C 7.99685 5.0019531 5.2653 6.2718052 3 8.015625 L 11.03125 16.996094 L 12 15.900391 L 12 14 L 13.013672 14 C 13.033322 12.365093 14.356187 11 16 11 C 16.104411 11 16.203121 11.020518 16.304688 11.03125 L 19 7.984375 C 16.742 6.2632943 14.040297 5 11.029297 5 z"/>
 <path style="fill:currentColor" class="ColorScheme-Text" d="M 11.03125 7.9980469 C 8.78845 7.9980469 6.4751812 8.7110461 4.8007812 10 L 11.03125 17 L 12 15.900391 L 12 14 L 13.013672 14 C 13.033322 12.365093 14.356187 11 16 11 C 16.099775 11 16.193828 11.021438 16.291016 11.03125 L 17.199219 10 C 15.532219 8.7274433 13.259203 8.0019531 11.033203 8.0019531 L 11.03125 7.9980469 z"/>
</svg>

<svg xmlns="http://www.w3.org/2000/svg" width="22" height="22"><defs><style id="current-color-scheme" type="text/css">.ColorScheme-Text{color:#1e333d}</style></defs><path class="ColorScheme-Text" d="M16 12c-1.108 0-2 .91-2 2.031V15h-1v4h6v-4h-1v-.969c0-1.12-.892-2.031-2-2.031zm0 1c.554 0 1 .442 1 1v1h-2v-1c0-.558.446-1 1-1z" fill="currentColor"/><path class="ColorScheme-Text" d="M11.03 5l.001.002c-3.034 0-5.766 1.27-8.031 3.014l8.031 8.98L12 15.9V14h1.014c.02-1.635 1.342-3 2.986-3 .104 0 .203.02.305.031L19 7.984C16.742 6.264 14.04 5 11.03 5z" opacity=".3" fill="currentColor"/><path class="ColorScheme-Text" d="M11.031 7.998c-2.243 0-4.556.713-6.23 2.002l6.23 7L12 15.9V14h1.014c.02-1.635 1.342-3 2.986-3 .1 0 .194.021.291.031L17.199 10c-1.667-1.273-3.94-1.998-6.166-1.998l-.002-.004z" fill="currentColor"/></svg>
